X: 33159
T: Princess Royal, The
R: reel
M: 4/4
K: Adorian
L:1/4
|:B/A/|G/A/F/G/ E B/A/|G/A/F/G/ E B|cB A d/c/|B/c/B/A/ .G B|
A/B/A/G/ F/G/F/E/|Dc B B/A/|~G F/E/ G/F/E/D/|~E2 E:|
|:B|e3/2^d ef|gG Gg|g/f/e/d/ c/B/A/G/|F/d/A/F/ DE/F/|
GF/G/ AG/A/|BB eA|dG cd/c/|B2c/B/B/A/|
A/G/G/F/ E/G/F/E/|D/D/D/c/ BB/A/|GF/E/ G/F/E/^D/|E2 E:|

